SFASUI/public/images/iconstart26.svg

<svg width="20" height="20" viewBox="0 0 20 20" fill="none" xmlns="http://www.w3.org/2000/svg">
<path fill-rule="evenodd" clip-rule="evenodd" d="M9.99984 2.50001C9.11578 2.50001 8.26794 2.8512 7.64281 3.47632C7.01769 4.10144 6.6665 4.94929 6.6665 5.83334V8.33334H13.3332V5.83334C13.3332 4.94929 12.982 4.10144 12.3569 3.47632C11.7317 2.8512 10.8839 2.50001 9.99984 2.50001ZM14.9998 8.33334V5.83334C14.9998 4.50726 14.4731 3.23549 13.5354 2.29781C12.5977 1.36013 11.3259 0.833344 9.99984 0.833344C8.67376 0.833344 7.40199 1.36013 6.4643 2.29781C5.52662 3.23549 4.99984 4.50726 4.99984 5.83334V8.33334H4.1665C2.78579 8.33334 1.6665 9.45263 1.6665 10.8333V16.6667C1.6665 18.0474 2.78579 19.1667 4.1665 19.1667H15.8332C17.2139 19.1667 18.3332 18.0474 18.3332 16.6667V10.8333C18.3332 9.45263 17.2139 8.33334 15.8332 8.33334H14.9998ZM4.1665 10C3.70627 10 3.33317 10.3731 3.33317 10.8333V16.6667C3.33317 17.1269 3.70627 17.5 4.1665 17.5H15.8332C16.2934 17.5 16.6665 17.1269 16.6665 16.6667V10.8333C16.6665 10.3731 16.2934 10 15.8332 10H4.1665Z" fill="#202020"/>
</svg>

<svg width="20" height="20" fill="none" xmlns="http://www.w3.org/2000/svg"><path fill-rule="evenodd" clip-rule="evenodd" d="M10 2.5a3.333 3.333 0 0 0-3.333 3.333v2.5h6.666v-2.5A3.333 3.333 0 0 0 10 2.5Zm5 5.833v-2.5a5 5 0 1 0-10 0v2.5h-.833a2.5 2.5 0 0 0-2.5 2.5v5.834a2.5 2.5 0 0 0 2.5 2.5h11.666a2.5 2.5 0 0 0 2.5-2.5v-5.834a2.5 2.5 0 0 0-2.5-2.5H15ZM4.166 10a.833.833 0 0 0-.833.833v5.834c0 .46.373.833.833.833h11.667c.46 0 .833-.373.833-.833v-5.834a.833.833 0 0 0-.833-.833H4.167Z" fill="#202020"/></svg>
